assets/sonr-icons/media-stop.svg

<svg xmlns="http://www.w3.org/2000/svg" width="24" height="24" fill="none"><path fill="currentColor" d="M12 22C6.477 22 2 17.523 2 12S6.478 2 12 2s10 4.477 10 10-4.477 10-10 10M8.218 9.092C8 9.52 8 10.08 8 11.2v1.6c0 1.12 0 1.68.218 2.108.192.377.498.683.874.874C9.52 16 10.08 16 11.2 16h1.6c1.12 0 1.68 0 2.108-.218.376-.192.682-.498.874-.874C16 14.48 16 13.92 16 12.8v-1.6c0-1.12 0-1.68-.218-2.108a2 2 0 0 0-.874-.874C14.48 8 13.92 8 12.8 8h-1.6c-1.12 0-1.68 0-2.108.218a2 2 0 0 0-.874.874"/></svg>

<svg xmlns="http://www.w3.org/2000/svg" width="24" height="24" fill="none" viewBox="0 0 24 24"><path fill="#000" d="M12 22C6.477 22 2 17.523 2 12C2 6.477 6.478 2 12 2C17.523 2 22 6.477 22 12C22 17.523 17.523 22 12 22ZM8.218 9.092C8 9.52 8 10.08 8 11.2V12.8C8 13.92 8 14.48 8.218 14.908C8.41 15.285 8.716 15.591 9.092 15.782C9.52 16 10.08 16 11.2 16H12.8C13.92 16 14.48 16 14.908 15.782C15.284 15.59 15.59 15.284 15.782 14.908C16 14.48 16 13.92 16 12.8V11.2C16 10.08 16 9.52 15.782 9.092C15.59 8.715 15.284 8.41 14.908 8.218C14.48 8 13.92 8 12.8 8H11.2C10.08 8 9.52 8 9.092 8.218C8.715 8.41 8.409 8.716 8.218 9.092Z"/></svg>
